src/assets/icons/multicolor/checkboxOn.multicolor.svg

<svg width="26" height="27" fill="none">
  <path fill="#093971" stroke="#093971" stroke-width=".25" d="M7.46286 10.0255h.00002L13.045 20.2946 23.3354 1.1532c.1382-.257319.459-.353302.7149-.214934.2568.137844.3529.458204.2147.714644L13.5125 21.654h-.0001v.0002l-.1101-.0592c-.0699.1305-.2059.2117-.3539.2121L7.46286 10.0255zm0 0c-.13913-.25574-.45991-.35123-.71577-.21175-.25626.13922-.35096.45965-.2117.71555l.92747-.5038z"/>
  <path fill="#093971" stroke="#093971" stroke-width=".25" d="M24.6004 7.70882c-.2894 0-.5238.23452-.5238.52387V19.8335c0 2.9093-2.3673 5.2765-5.2765 5.2765H7.19924c-2.90928 0-5.27654-2.3672-5.27654-5.2765V8.23269c0-2.90932 2.36726-5.27654 5.27654-5.27654H18.8001c.2893 0 .5238-.23453.5238-.52387 0-.28936-.2345-.52383-.5238-.52383H7.19924C3.71202 1.90845.875 4.74542.875 8.23269V19.8335c0 3.4872 2.83701 6.3242 6.32424 6.3242H18.8001c3.4872 0 6.3242-2.837 6.3242-6.3242V8.23269c0-.28936-.2345-.52387-.5239-.52387z"/>
</svg>

<svg width="26" height="27" viewBox="0 0 26 27" fill="none" xmlns="http://www.w3.org/2000/svg">
<path d="M7.46286 10.0255L7.46288 10.0255L13.045 20.2946L23.3354 1.1532C23.4736 0.895881 23.7944 0.799898 24.0503 0.938266C24.3071 1.07611 24.4032 1.39647 24.265 1.65291L13.5125 21.654C13.5124 21.654 13.5124 21.654 13.5124 21.654L13.5124 21.6542L13.4023 21.595C13.3324 21.7255 13.1964 21.8067 13.0484 21.8071L7.46286 10.0255ZM7.46286 10.0255C7.32373 9.76976 7.00295 9.67427 6.74709 9.81375C6.49083 9.95297 6.39613 10.2734 6.53539 10.5293L7.46286 10.0255Z" fill="#093971" stroke="#093971" stroke-width="0.25"/>
<path d="M24.6004 7.70882C24.311 7.70882 24.0766 7.94334 24.0766 8.23269V19.8335C24.0766 22.7428 21.7093 25.11 18.8001 25.11H7.19924C4.28996 25.11 1.9227 22.7428 1.9227 19.8335V8.23269C1.9227 5.32337 4.28996 2.95615 7.19924 2.95615H18.8001C19.0894 2.95615 19.3239 2.72162 19.3239 2.43228C19.3239 2.14292 19.0894 1.90845 18.8001 1.90845H7.19924C3.71202 1.90845 0.875 4.74542 0.875 8.23269V19.8335C0.875 23.3207 3.71201 26.1577 7.19924 26.1577H18.8001C22.2873 26.1577 25.1243 23.3207 25.1243 19.8335V8.23269C25.1243 7.94333 24.8898 7.70882 24.6004 7.70882Z" fill="#093971" stroke="#093971" stroke-width="0.25"/>
</svg>
